public/svgs/light/film-slash.svg

<svg xmlns="http://www.w3.org/2000/svg" viewBox="0 0 640 512"><!-- Font Awesome Pro 6.0.0-alpha2 by @fontawesome - https://fontawesome.com License - https://fontawesome.com/license (Commercial License) --><path d="M633.923 483.436L25.921 3.42C18.984 -2.033 8.921 -0.83 3.437 6.061C-2.032 12.998 -0.845 23.061 6.077 28.545L614.079 508.562C617.017 510.875 620.517 512 623.985 512C628.72 512 633.407 509.906 636.564 505.922C642.032 498.984 640.845 488.92 633.923 483.436ZM447.999 64V275.486L479.999 300.75V272H543.999V351.279L575.999 376.543V96C575.999 60.654 547.345 32 511.999 32H139.591L180.122 64H447.999ZM479.999 64H511.999C529.644 64 543.999 78.355 543.999 96V144H479.999V64ZM479.999 176H543.999V240H479.999V176ZM191.999 448V236.48L159.999 211.217V240H95.999V160.689L63.999 135.426V416C63.999 451.346 92.653 480 127.999 480H500.446L459.913 448H191.999ZM159.999 448H127.999C110.355 448 95.999 433.645 95.999 416V368H159.999V448ZM159.999 336H95.999V272H159.999V336Z"/></svg>

<svg xmlns="http://www.w3.org/2000/svg" viewBox="0 0 640 512"><!--! Font Awesome Pro 6.5.1 by @fontawesome - https://fontawesome.com License - https://fontawesome.com/license (Commercial License) Copyright 2023 Fonticons, Inc. --><path d="M25.9 3.4C19-2 8.9-.8 3.4 6.1S-.8 23.1 6.1 28.6l608 480c6.9 5.5 17 4.3 22.5-2.6s4.3-17-2.6-22.5L25.9 3.4zM500.4 480L448 438.6V448H192V352 256 240H160 96V176 160.7L64 135.4V416c0 35.3 28.7 64 64 64H500.4zM139.6 32L192 73.4V64H448v96 96 16h32 64v64 15.3l32 25.3V96c0-35.3-28.7-64-64-64H139.6zM160 448H128c-17.7 0-32-14.3-32-32V368h64v80zM96 272h64v64H96V272zm384-96h64v64H480V176zm0-32V64h32c17.7 0 32 14.3 32 32v48H480z"/></svg>
